assets/1. P-Z/Umbrella on ground/Color/Umbrella.On.Ground-color.svg

<svg width="100%" height="100%" viewBox="0 0 32 32" fill="none" xmlns="http://www.w3.org/2000/svg">
<g filter="url(#filter0_i_18_15504)">
<path d="M5.01 29.9375H26.99C28.65 29.9375 30 28.5875 30 26.9275V20C30 18.9 29.11 18 28 18H4C2.9 18 2 18.89 2 20V26.9275C2 28.5975 3.35 29.9375 5.01 29.9375Z" fill="url(#paint0_linear_18_15504)"/>
</g>
<g filter="url(#filter1_f_18_15504)">
<path d="M7.79004 28.3103C21.4949 28.3103 25.5066 26.4418 25.5066 25.5274C25.5066 24.613 20.8096 22.7427 7.79004 22.7427V28.3103Z" fill="url(#paint1_radial_18_15504)"/>
</g>
<g filter="url(#filter2_i_18_15504)">
<path d="M24.25 7.87754L7.12003 25.0075C6.92003 25.2075 6.92003 25.5275 7.12003 25.7275C7.32003 25.9275 7.64003 25.9275 7.84003 25.7275L24.97 8.59754C25.17 8.39754 25.17 8.07754 24.97 7.87754C24.77 7.67754 24.45 7.67754 24.25 7.87754Z" fill="url(#paint2_linear_18_15504)"/>
<path d="M24.25 7.87754L7.12003 25.0075C6.92003 25.2075 6.92003 25.5275 7.12003 25.7275C7.32003 25.9275 7.64003 25.9275 7.84003 25.7275L24.97 8.59754C25.17 8.39754 25.17 8.07754 24.97 7.87754C24.77 7.67754 24.45 7.67754 24.25 7.87754Z" fill="url(#paint3_radial_18_15504)"/>
</g>
<path d="M22.82 25.8475C23.58 26.6075 24.77 26.6675 25.34 25.9275C29.24 20.8275 28.83 13.4675 24.13 8.76751C19.43 4.06751 12.05 3.64751 6.94999 7.54751C6.20999 8.10751 6.26999 9.29751 7.02999 10.0575L7.78999 10.8175L15.3689 18.4605L22.05 25.0775L22.82 25.8475Z" fill="url(#paint4_linear_18_15504)"/>
<path d="M22.82 25.8475C23.58 26.6075 24.77 26.6675 25.34 25.9275C29.24 20.8275 28.83 13.4675 24.13 8.76751C19.43 4.06751 12.05 3.64751 6.94999 7.54751C6.20999 8.10751 6.26999 9.29751 7.02999 10.0575L7.78999 10.8175L15.3689 18.4605L22.05 25.0775L22.82 25.8475Z" fill="url(#paint5_radial_18_15504)"/>
<path d="M22.82 25.8475C23.58 26.6075 24.77 26.6675 25.34 25.9275C29.24 20.8275 28.83 13.4675 24.13 8.76751C19.43 4.06751 12.05 3.64751 6.94999 7.54751C6.20999 8.10751 6.26999 9.29751 7.02999 10.0575L7.78999 10.8175L15.3689 18.4605L22.05 25.0775L22.82 25.8475Z" fill="url(#paint6_linear_18_15504)"/>
<path d="M22.82 25.8475C23.58 26.6075 24.77 26.6675 25.34 25.9275C29.24 20.8275 28.83 13.4675 24.13 8.76751C19.43 4.06751 12.05 3.64751 6.94999 7.54751C6.20999 8.10751 6.26999 9.29751 7.02999 10.0575L7.78999 10.8175L15.3689 18.4605L22.05 25.0775L22.82 25.8475Z" fill="url(#paint7_linear_18_15504)"/>
<path d="M22.82 25.8475C23.58 26.6075 24.77 26.6675 25.34 25.9275C29.24 20.8275 28.83 13.4675 24.13 8.76751C19.43 4.06751 12.05 3.64751 6.94999 7.54751C6.20999 8.10751 6.26999 9.29751 7.02999 10.0575L7.78999 10.8175L15.3689 18.4605L22.05 25.0775L22.82 25.8475Z" fill="url(#paint8_radial_18_15504)"/>
<path d="M24.2331 8.89375C28.0185 12.8639 27.0621 20.0555 22.04 25.0775L18.4643 21.4992L18.47 21.4975C23.4291 16.5385 25.9485 10.979 24.2331 8.89375Z" fill="url(#paint9_linear_18_15504)"/>
<path d="M24.2331 8.89375C28.0185 12.8639 27.0621 20.0555 22.04 25.0775L18.4643 21.4992L18.47 21.4975C23.4291 16.5385 25.9485 10.979 24.2331 8.89375Z" fill="url(#paint10_linear_18_15504)"/>
<path d="M23.9597 8.62053C19.9889 4.83973 12.8103 5.79726 7.79004 10.8175L11.3409 14.3949C16.3042 9.43309 21.8712 6.90417 23.9597 8.62053Z" fill="url(#paint11_linear_18_15504)"/>
<path d="M23.9597 8.62053C19.9889 4.83973 12.8103 5.79726 7.79004 10.8175L11.3409 14.3949C16.3042 9.43309 21.8712 6.90417 23.9597 8.62053Z" fill="url(#paint12_linear_18_15504)"/>
<g filter="url(#filter3_f_18_15504)">
<path d="M7.39911 25.2709L12.9737 19.6877" stroke="url(#paint13_linear_18_15504)" stroke-width="0.25" stroke-linecap="round"/>
</g>
<defs>
<filter id="filter0_i_18_15504" x="1.85" y="18" width="28.15" height="11.9375" filterUnits="userSpaceOnUse" color-interpolation-filters="sRGB">
<feFlood flood-opacity="0" result="BackgroundImageFix"/>
<feBlend mode="normal" in="SourceGraphic" in2="BackgroundImageFix" result="shape"/>
<feColorMatrix in="SourceAlpha" type="matrix" values="0 0 0 0 0 0 0 0 0 0 0 0 0 0 0 0 0 0 127 0" result="hardAlpha"/>
<feOffset dx="-0.15"/>
<feGaussianBlur stdDeviation="0.25"/>
<feComposite in2="hardAlpha" operator="arithmetic" k2="-1" k3="1"/>
<feColorMatrix type="matrix" values="0 0 0 0 1 0 0 0 0 0.886275 0 0 0 0 0.45098 0 0 0 1 0"/>
<feBlend mode="normal" in2="shape" result="effect1_innerShadow_18_15504"/>
</filter>
<filter id="filter1_f_18_15504" x="6.79004" y="21.7427" width="19.7165" height="7.56763" filterUnits="userSpaceOnUse" color-interpolation-filters="sRGB">
<feFlood flood-opacity="0" result="BackgroundImageFix"/>
<feBlend mode="normal" in="SourceGraphic" in2="BackgroundImageFix" result="shape"/>
<feGaussianBlur stdDeviation="0.5" result="effect1_foregroundBlur_18_15504"/>
</filter>
<filter id="filter2_i_18_15504" x="6.97003" y="7.52754" width="18.15" height="18.35" filterUnits="userSpaceOnUse" color-interpolation-filters="sRGB">
<feFlood flood-opacity="0" result="BackgroundImageFix"/>
<feBlend mode="normal" in="SourceGraphic" in2="BackgroundImageFix" result="shape"/>
<feColorMatrix in="SourceAlpha" type="matrix" values="0 0 0 0 0 0 0 0 0 0 0 0 0 0 0 0 0 0 127 0" result="hardAlpha"/>
<feOffset dy="-0.2"/>
<feGaussianBlur stdDeviation="0.25"/>
<feComposite in2="hardAlpha" operator="arithmetic" k2="-1" k3="1"/>
<feColorMatrix type="matrix" values="0 0 0 0 0.498039 0 0 0 0 0.262745 0 0 0 0 0.109804 0 0 0 1 0"/>
<feBlend mode="normal" in2="shape" result="effect1_innerShadow_18_15504"/>
</filter>
<filter id="filter3_f_18_15504" x="7.02411" y="19.3127" width="6.32452" height="6.33313" filterUnits="userSpaceOnUse" color-interpolation-filters="sRGB">
<feFlood flood-opacity="0" result="BackgroundImageFix"/>
<feBlend mode="normal" in="SourceGraphic" in2="BackgroundImageFix" result="shape"/>
<feGaussianBlur stdDeviation="0.125" result="effect1_foregroundBlur_18_15504"/>
</filter>
<linearGradient id="paint0_linear_18_15504" x1="27.0186" y1="29.124" x2="12.0289" y2="20.7298" gradientUnits="userSpaceOnUse">
<stop stop-color="#FFC250"/>
<stop offset="1" stop-color="#FFB000"/>
</linearGradient>
<radialGradient id="paint1_radial_18_15504" cx="0" cy="0" r="1" gradientUnits="userSpaceOnUse" gradientTransform="translate(24.2705 25.177) rotate(180) scale(19.2226 5.27651)">
<stop stop-color="#D7731C"/>
<stop offset="1" stop-color="#D7731C" stop-opacity="0"/>
</radialGradient>
<linearGradient id="paint2_linear_18_15504" x1="24.9972" y1="7.88726" x2="7.14591" y2="25.7385" gradientUnits="userSpaceOnUse">
<stop stop-color="#A66459"/>
<stop offset="0.588542" stop-color="#8A3F42"/>
<stop offset="1" stop-color="#7B4230"/>
</linearGradient>
<radialGradient id="paint3_radial_18_15504" cx="0" cy="0" r="1" gradientUnits="userSpaceOnUse" gradientTransform="translate(25.0618 7.81232) rotate(139.857) scale(0.921383 0.590771)">
<stop stop-color="#C18E80"/>
<stop offset="0.993283" stop-color="#C18E80" stop-opacity="0"/>
</radialGradient>
<linearGradient id="paint4_linear_18_15504" x1="22.1299" y1="14.3753" x2="13.1924" y2="16.4378" gradientUnits="userSpaceOnUse">
<stop stop-color="#FF6072"/>
<stop offset="1" stop-color="#EC3A51"/>
</linearGradient>
<radialGradient id="paint5_radial_18_15504" cx="0" cy="0" r="1" gradientUnits="userSpaceOnUse" gradientTransform="translate(16.1827 19.2592) rotate(-23.1654) scale(12.8413 20.2531)">
<stop offset="0.767914" stop-color="#EA596B" stop-opacity="0"/>
<stop offset="1" stop-color="#EA596B"/>
</radialGradient>
<linearGradient id="paint6_linear_18_15504" x1="13.0893" y1="17.67" x2="15.984" y2="14.7752" gradientUnits="userSpaceOnUse">
<stop stop-color="#CB3A43"/>
<stop offset="0.481167" stop-color="#D92E49"/>
<stop offset="0.671191" stop-color="#D92E49" stop-opacity="0"/>
</linearGradient>
<linearGradient id="paint7_linear_18_15504" x1="29.6914" y1="23.2891" x2="22.6533" y2="18.2375" gradientUnits="userSpaceOnUse">
<stop stop-color="#EE442B"/>
<stop offset="1" stop-color="#EE442B" stop-opacity="0"/>
</linearGradient>
<radialGradient id="paint8_radial_18_15504" cx="0" cy="0" r="1" gradientUnits="userSpaceOnUse" gradientTransform="translate(20.4424 17.4378) rotate(-119.416) scale(13.489 22.5036)">
<stop stop-color="#CA3E4B" stop-opacity="0"/>
<stop offset="0.611421" stop-color="#CA3E4B" stop-opacity="0"/>
<stop offset="1" stop-color="#CA3E4B"/>
</radialGradient>
<linearGradient id="paint9_linear_18_15504" x1="15.0674" y1="18.1878" x2="24.0049" y2="9.25033" gradientUnits="userSpaceOnUse">
<stop stop-color="#E5DFEA"/>
<stop offset="1" stop-color="#FEFCFF"/>
</linearGradient>
<linearGradient id="paint10_linear_18_15504" x1="13.6924" y1="19.0003" x2="16.4737" y2="16.2191" gradientUnits="userSpaceOnUse">
<stop stop-color="#C9B9C9"/>
<stop offset="0.61236" stop-color="#D4C9DC"/>
<stop offset="0.814607" stop-color="#D4C9DC" stop-opacity="0"/>
</linearGradient>
<linearGradient id="paint11_linear_18_15504" x1="15.0674" y1="18.1878" x2="24.0049" y2="9.25033" gradientUnits="userSpaceOnUse">
<stop stop-color="#E5DFEA"/>
<stop offset="1" stop-color="#FEFCFF"/>
</linearGradient>
<linearGradient id="paint12_linear_18_15504" x1="13.6924" y1="19.0003" x2="16.4737" y2="16.2191" gradientUnits="userSpaceOnUse">
<stop stop-color="#C9B9C9"/>
<stop offset="0.61236" stop-color="#D4C9DC"/>
<stop offset="0.814607" stop-color="#D4C9DC" stop-opacity="0"/>
</linearGradient>
<linearGradient id="paint13_linear_18_15504" x1="7.78611" y1="24.6667" x2="13.5886" y2="23.4191" gradientUnits="userSpaceOnUse">
<stop stop-color="#7F5951"/>
<stop offset="1" stop-color="#7F5951" stop-opacity="0"/>
</linearGradient>
</defs>
</svg>

<svg width="100%" height="100%" viewBox="0 0 32 32" xmlns="http://www.w3.org/2000/svg"><g filter="url(#a)"><path fill="url(#b)" d="M5.01 29.938h21.98c1.66 0 3.01-1.35 3.01-3.01V20a2 2 0 0 0-2-2H4a2 2 0 0 0-2 2v6.927c0 1.67 1.35 3.01 3.01 3.01"/></g><g filter="url(#c)"><path fill="url(#d)" d="M7.79 28.31c13.705 0 17.717-1.868 17.717-2.783S20.81 22.743 7.79 22.743z"/></g><g filter="url(#e)"><path fill="url(#f)" d="M24.25 7.878 7.12 25.008c-.2.2-.2.52 0 .72s.52.2.72 0l17.13-17.13c.2-.2.2-.52 0-.72s-.52-.2-.72 0"/><path fill="url(#g)" d="M24.25 7.878 7.12 25.008c-.2.2-.2.52 0 .72s.52.2.72 0l17.13-17.13c.2-.2.2-.52 0-.72s-.52-.2-.72 0"/></g><path fill="url(#h)" d="M22.82 25.848c.76.76 1.95.82 2.52.08 3.9-5.1 3.49-12.46-1.21-17.16s-12.08-5.12-17.18-1.22c-.74.56-.68 1.75.08 2.51l.76.76 7.579 7.643 6.681 6.617z"/><path fill="url(#i)" d="M22.82 25.848c.76.76 1.95.82 2.52.08 3.9-5.1 3.49-12.46-1.21-17.16s-12.08-5.12-17.18-1.22c-.74.56-.68 1.75.08 2.51l.76.76 7.579 7.643 6.681 6.617z"/><path fill="url(#j)" d="M22.82 25.848c.76.76 1.95.82 2.52.08 3.9-5.1 3.49-12.46-1.21-17.16s-12.08-5.12-17.18-1.22c-.74.56-.68 1.75.08 2.51l.76.76 7.579 7.643 6.681 6.617z"/><path fill="url(#k)" d="M22.82 25.848c.76.76 1.95.82 2.52.08 3.9-5.1 3.49-12.46-1.21-17.16s-12.08-5.12-17.18-1.22c-.74.56-.68 1.75.08 2.51l.76.76 7.579 7.643 6.681 6.617z"/><path fill="url(#l)" d="M22.82 25.848c.76.76 1.95.82 2.52.08 3.9-5.1 3.49-12.46-1.21-17.16s-12.08-5.12-17.18-1.22c-.74.56-.68 1.75.08 2.51l.76.76 7.579 7.643 6.681 6.617z"/><path fill="url(#m)" d="M24.233 8.894c3.785 3.97 2.83 11.161-2.193 16.184l-3.576-3.579.006-.002c4.96-4.959 7.479-10.518 5.763-12.603"/><path fill="url(#n)" d="M24.233 8.894c3.785 3.97 2.83 11.161-2.193 16.184l-3.576-3.579.006-.002c4.96-4.959 7.479-10.518 5.763-12.603"/><path fill="url(#o)" d="M23.96 8.62c-3.971-3.78-11.15-2.823-16.17 2.198l3.55 3.577c4.964-4.962 10.531-7.49 12.62-5.774"/><path fill="url(#p)" d="M23.96 8.62c-3.971-3.78-11.15-2.823-16.17 2.198l3.55 3.577c4.964-4.962 10.531-7.49 12.62-5.774"/><g filter="url(#q)"><path stroke="url(#r)" stroke-linecap="round" stroke-width=".25" d="m7.4 25.27 5.574-5.582"/></g><defs><linearGradient id="b" x1="27.019" x2="12.029" y1="29.124" y2="20.73" gradientUnits="userSpaceOnUse"><stop stop-color="#FFC250"/><stop offset="1" stop-color="#FFB000"/></linearGradient><linearGradient id="f" x1="24.997" x2="7.146" y1="7.887" y2="25.738" gradientUnits="userSpaceOnUse"><stop stop-color="#A66459"/><stop offset=".589" stop-color="#8A3F42"/><stop offset="1" stop-color="#7B4230"/></linearGradient><linearGradient id="h" x1="22.13" x2="13.192" y1="14.375" y2="16.438" gradientUnits="userSpaceOnUse"><stop stop-color="#FF6072"/><stop offset="1" stop-color="#EC3A51"/></linearGradient><linearGradient id="j" x1="13.089" x2="15.984" y1="17.67" y2="14.775" gradientUnits="userSpaceOnUse"><stop stop-color="#CB3A43"/><stop offset=".481" stop-color="#D92E49"/><stop offset=".671" stop-color="#D92E49" stop-opacity="0"/></linearGradient><linearGradient id="k" x1="29.691" x2="22.653" y1="23.289" y2="18.238" gradientUnits="userSpaceOnUse"><stop stop-color="#EE442B"/><stop offset="1" stop-color="#EE442B" stop-opacity="0"/></linearGradient><linearGradient id="m" x1="15.067" x2="24.005" y1="18.188" y2="9.25" gradientUnits="userSpaceOnUse"><stop stop-color="#E5DFEA"/><stop offset="1" stop-color="#FEFCFF"/></linearGradient><linearGradient id="n" x1="13.692" x2="16.474" y1="19" y2="16.219" gradientUnits="userSpaceOnUse"><stop stop-color="#C9B9C9"/><stop offset=".612" stop-color="#D4C9DC"/><stop offset=".815" stop-color="#D4C9DC" stop-opacity="0"/></linearGradient><linearGradient id="o" x1="15.067" x2="24.005" y1="18.188" y2="9.25" gradientUnits="userSpaceOnUse"><stop stop-color="#E5DFEA"/><stop offset="1" stop-color="#FEFCFF"/></linearGradient><linearGradient id="p" x1="13.692" x2="16.474" y1="19" y2="16.219" gradientUnits="userSpaceOnUse"><stop stop-color="#C9B9C9"/><stop offset=".612" stop-color="#D4C9DC"/><stop offset=".815" stop-color="#D4C9DC" stop-opacity="0"/></linearGradient><linearGradient id="r" x1="7.786" x2="13.589" y1="24.667" y2="23.419" gradientUnits="userSpaceOnUse"><stop stop-color="#7F5951"/><stop offset="1" stop-color="#7F5951" stop-opacity="0"/></linearGradient><radialGradient id="d" cx="0" cy="0" r="1" gradientTransform="matrix(-19.2226 0 0 -5.27651 24.27 25.177)" gradientUnits="userSpaceOnUse"><stop stop-color="#D7731C"/><stop offset="1" stop-color="#D7731C" stop-opacity="0"/></radialGradient><radialGradient id="g" cx="0" cy="0" r="1" gradientTransform="matrix(-.70434 .59401 -.38087 -.4516 25.062 7.812)" gradientUnits="userSpaceOnUse"><stop stop-color="#C18E80"/><stop offset=".993" stop-color="#C18E80" stop-opacity="0"/></radialGradient><radialGradient id="i" cx="0" cy="0" r="1" gradientTransform="rotate(-23.165 55.075 -29.849)scale(12.8413 20.2531)" gradientUnits="userSpaceOnUse"><stop offset=".768" stop-color="#EA596B" stop-opacity="0"/><stop offset="1" stop-color="#EA596B"/></radialGradient><radialGradient id="l" cx="0" cy="0" r="1" gradientTransform="rotate(-119.416 15.314 2.748)scale(13.489 22.5036)" gradientUnits="userSpaceOnUse"><stop stop-color="#CA3E4B" stop-opacity="0"/><stop offset=".611" stop-color="#CA3E4B" stop-opacity="0"/><stop offset="1" stop-color="#CA3E4B"/></radialGradient><filter id="a" width="28.15" height="11.938" x="1.85" y="18" color-interpolation-filters="sRGB" filterUnits="userSpaceOnUse"><feFlood flood-opacity="0" result="BackgroundImageFix"/><feBlend in="SourceGraphic" in2="BackgroundImageFix" result="shape"/><feColorMatrix in="SourceAlpha" result="hardAlpha" values="0 0 0 0 0 0 0 0 0 0 0 0 0 0 0 0 0 0 127 0"/><feOffset dx="-.15"/><feGaussianBlur stdDeviation=".25"/><feComposite in2="hardAlpha" k2="-1" k3="1" operator="arithmetic"/><feColorMatrix values="0 0 0 0 1 0 0 0 0 0.886275 0 0 0 0 0.45098 0 0 0 1 0"/><feBlend in2="shape" result="effect1_innerShadow_18_15504"/></filter><filter id="c" width="19.716" height="7.568" x="6.79" y="21.743" color-interpolation-filters="sRGB" filterUnits="userSpaceOnUse"><feFlood flood-opacity="0" result="BackgroundImageFix"/><feBlend in="SourceGraphic" in2="BackgroundImageFix" result="shape"/><feGaussianBlur result="effect1_foregroundBlur_18_15504" stdDeviation=".5"/></filter><filter id="e" width="18.15" height="18.35" x="6.97" y="7.528" color-interpolation-filters="sRGB" filterUnits="userSpaceOnUse"><feFlood flood-opacity="0" result="BackgroundImageFix"/><feBlend in="SourceGraphic" in2="BackgroundImageFix" result="shape"/><feColorMatrix in="SourceAlpha" result="hardAlpha" values="0 0 0 0 0 0 0 0 0 0 0 0 0 0 0 0 0 0 127 0"/><feOffset dy="-.2"/><feGaussianBlur stdDeviation=".25"/><feComposite in2="hardAlpha" k2="-1" k3="1" operator="arithmetic"/><feColorMatrix values="0 0 0 0 0.498039 0 0 0 0 0.262745 0 0 0 0 0.109804 0 0 0 1 0"/><feBlend in2="shape" result="effect1_innerShadow_18_15504"/></filter><filter id="q" width="6.325" height="6.333" x="7.024" y="19.313" color-interpolation-filters="sRGB" filterUnits="userSpaceOnUse"><feFlood flood-opacity="0" result="BackgroundImageFix"/><feBlend in="SourceGraphic" in2="BackgroundImageFix" result="shape"/><feGaussianBlur result="effect1_foregroundBlur_18_15504" stdDeviation=".125"/></filter></defs></svg>
